X: 41044
T: Trip To London, The
R: jig
M: 6/8
K: Amajor
cAF ECE|AGA cde|d2 B B^AB|gfe ^deB|
cAF ECE|AGA cde|dfb cea|BAG A2 B:|
|:c2 a eca|cac eca|d2 b fdb|dbd fdb|c2 a eca|
cac eca|1 dfb cea|Bgf e^d=d:|2 dfb cea|BAG A3||

